X:084
T:Cock of the North
M:6/8
L:1/8
K:G
dc | BcB BAG | Bcd e2 d | BcB BAG | A2A Adc | 
BcB BAG | Bcd e2 d | BcB ABA | G3 -Gdc | 
BcB BAG | d2 z e3 | d2B BAG | A2A Adc | 
BcB BAG | d2 z e3 | d2B AGA | G3 def || 
g2 d e2 d | g2 d e2 d | BcB BAG | A2A A2d | 
g2 d e2 d | g2 d e2 d | BcB AGA | G3 G2 d :| 

